X: 8654
T: Cross Legged Tailor, The
R: reel
M: 4/4
K: Amixolydian
|:EAAE AAEA|AABG AGEA|EAAE ~G3A|BcdB BAGA|
EAAG AAGA|AABG AGEF|~G3A BcdB|1 BAGA BAGA:|2 BAGB A4||
|:eaaf geed|BcdB AGED|~G3A Bcde|gede ~g2g2|
eaaf geed|BcdB AGED|~G3A BcdB|1 BAGA BA3:|2 BAGB A3G||

